unum/images-source/face_3.svg

<?xml version="1.0" encoding="UTF-8"?>
<svg width="101px" height="90px" viewBox="0 0 101 90" version="1.1" xmlns="http://www.w3.org/2000/svg" xmlns:xlink="http://www.w3.org/1999/xlink">
    <defs>
        <path d="M0.305970708,89.7742011 L0.305970708,80.6878017 C0.305970708,80.6878017 0.893692712,75.1100357 7.56979664,73.3793962 C7.56979664,73.3793962 18.3217885,69.4295301 26.7429385,65.7415739 C31.0982592,63.835654 32.0353257,62.6902839 36.4286699,60.7370028 C36.4286699,60.7370028 36.8872336,58.4674173 36.721978,57.1165463 L40.1581382,57.1165463 C40.1581382,57.1165463 40.9431467,57.5769162 40.1581382,52.2439481 C40.1581382,52.2439481 35.9701062,51.1257861 35.7748884,42.63169 C35.7748884,42.63169 32.6290758,43.6974967 32.4368186,38.5498873 C32.3056629,35.0603514 29.6224446,32.0312394 33.4840674,29.5299682 L31.5207256,24.1969713 C31.5207256,24.1969713 27.5950052,2.66763348 38.882642,5.82775978 C34.1208346,0.0999182487 65.8752651,-5.62695041 67.9377673,12.5437939 C67.9377673,12.5437939 69.4085526,22.3545192 67.9377673,29.0695804 C67.9377673,29.0695804 72.5753744,28.5296327 69.4746121,37.4981693 C69.4746121,37.4981693 67.7735819,43.9503371 65.1554242,42.5017567 C65.1554242,42.5017567 65.5828844,50.6653983 61.4599487,52.0495165 C61.4599487,52.0495165 61.7532925,56.3942668 61.7532925,56.6904327 L65.6810104,57.2827609 C65.6810104,57.2827609 65.0903279,60.8387479 65.7791365,61.2326269 C65.7791365,61.2326269 70.435791,64.4420781 75.9864948,65.8755609 C86.6864453,68.6387491 99.3477757,73.3804015 99.3477757,77.5287167 C99.3477757,77.5287167 100.428054,83.0591324 100.428054,89.7742011 L0.305970708,89.7742011 Z" id="path-1"></path>
    </defs>
    <g id="Pages" stroke="none" stroke-width="1" fill="none" fill-rule="evenodd">
        <g id="Print" transform="translate(-735.000000, -7674.000000)">
            <g id="Iconography" transform="translate(379.000000, 6893.000000)">
                <g id="Group-2" transform="translate(4.000000, 616.000000)">
                    <g id="Page-1" transform="translate(0.000000, 165.000000)">
                        <g id="Group-6" transform="translate(352.000000, 0.000000)">
                            <mask id="mask-2" fill="white">
                                <use xlink:href="#path-1"></use>
                            </mask>
                            <g id="Clip-5"></g>
                            <polygon id="Fill-4" fill="#8394A1" mask="url(#mask-2)" points="-3.43929909 93.5518067 104.173324 93.5518067 104.173324 -3.55763303 -3.43929909 -3.55763303"></polygon>
                        </g>
                    </g>
                </g>
            </g>
        </g>
    </g>
</svg>

<svg width="101" height="90" viewBox="0 0 101 90" xmlns="http://www.w3.org/2000/svg" xmlns:xlink="http://www.w3.org/1999/xlink"><defs><path d="M.306 89.774v-9.086s.588-5.578 7.264-7.309c0 0 10.752-3.95 19.173-7.637 4.355-1.906 5.292-3.052 9.686-5.005 0 0 .458-2.27.293-3.62h3.436s.785.46 0-4.873c0 0-4.188-1.118-4.383-9.612 0 0-3.146 1.065-3.338-4.082-.131-3.49-2.815-6.519 1.047-9.02l-1.963-5.333s-3.926-21.53 7.362-18.37C34.12.1 65.875-5.626 67.938 12.545c0 0 1.47 9.81 0 16.526 0 0 4.637-.54 1.537 8.428 0 0-1.701 6.452-4.32 5.004 0 0 .428 8.163-3.695 9.548 0 0 .293 4.344.293 4.64l3.928.593s-.59 3.556.098 3.95c0 0 4.657 3.21 10.207 4.643 10.7 2.763 23.362 7.504 23.362 11.653 0 0 1.08 5.53 1.08 12.245H.306z" id="a"/></defs><g fill="none" fill-rule="evenodd"><mask id="b" fill="#fff"><use xlink:href="#a"/></mask><path fill="#8394A1" mask="url(#b)" d="M-3.44 93.552h107.613v-97.11H-3.439z"/></g></svg>
